svg/u1f378.svg

<svg viewBox="0 0 128 128" xmlns="http://www.w3.org/2000/svg">
  <path d="M20.55,21.01l20.92,4.78l40.65,1.2l24.96-4.04l6.65-6.79l0.93,4.31L71.59,63.55 l-2.56,4.77L68.92,95.8c0,0,0.93,6.52,3.61,7.8c2.68,1.28,12.23,2.45,16.07,5.36c3.84,2.91,2.1,5.71,2.1,5.71l-6.87,5.12 l-19.44,3.03l-21.42-2.21c0,0-8.01-4.94-8.01-6.69c0,0-0.32-3.37,3.82-5.77c3.65-2.12,12.97-2.55,15.14-4.19 c4.31-3.26,4.54-6.75,4.54-6.75l0.35-28.87l-5.94-6.87c0,0-27.71-25.73-31.55-29.92c-3.84-4.19-5.59-6.52-7.22-8.97 c-3.99-5.98-0.34-9.98-0.34-9.98L20.55,21.01z" opacity="0.5" fill="#FFFFFF"/>
  <path d="M17.57,11.86L35.5,7.31L66,6.38l31.44,3.73l16.3,6.05l0.93,4.31L71.59,63.55l-2.56,4.77 L68.92,95.8c0,0,0.93,6.52,3.61,7.8c2.68,1.28,12.23,2.45,16.07,5.36c3.84,2.91,2.1,5.71,2.1,5.71l-6.87,5.12l-19.44,3.03 l-21.42-2.21c0,0-8.01-4.94-8.01-6.69c0,0-0.32-3.37,3.82-5.77c3.65-2.12,12.97-2.55,15.14-4.19c4.31-3.26,4.54-6.75,4.54-6.75 l0.35-28.87l-5.94-6.87c0,0-27.71-25.73-31.55-29.92c-3.84-4.19-5.59-6.52-7.22-8.97c-3.99-5.98-0.34-9.98-0.34-9.98L17.57,11.86z" opacity="0.7" fill="#E0E0E0"/>
  <path d="M24.89,26.32c0,0,11.78-6.06,39.31-5.7s38.34,7.98,38.34,7.98L87,39.35l-41.77-1.95L24.89,26.32z" fill="#FEF9E5"/>
  <path d="M64.9,33.06c-25.58-0.61-40.43-6.7-40.43-6.7l30.45,30.08c0,0,3.61,4.54,8.24,4.54 c4.63,0,6.37-1.98,7.96-3.2c1.58-1.22,31.46-29.17,31.46-29.17S86.58,33.57,64.9,33.06z" fill="#E5DDA0"/>
  <path d="M112.53,20.87l-1.59,2.22c0,0-34.67,33.62-41.3,39.86c-2.72,2.56-3.65,4.5-3.54,7.53 c0.1,2.78-1.79,16.9-1.79,16.9l1.86,15.59c0,0,0.89,2.54,2.93,4.07c2.04,1.53,7,2.16,7,2.16s-3.94-2.32-5.34-5.95 s-1.21-5.12-1.21-7.28c0-2.16,0-24.74,0-26.52c0-1.78,2.16-4.13,3.69-5.6c1.53-1.46,37.39-36.69,38.79-38.22 c2.71-2.96,3.56-4.92,3.68-6.45c0.13-1.53-0.33-3.6-0.91-2.58C114.23,17.63,112.53,20.87,112.53,20.87z" fill="#9E9E9E"/>
  <path d="M50.27,108.44c0,0,4.51-2.42,5.72-5.86s1.59-5.65,1.65-10.17s0-21.75,0-23.78 c0-2.45-3.04-4.9-4.41-6.78c-0.24-0.33,1.81,0.34,3.82,1.56c2.45,1.49,4.89,2.89,4.66,6.51c-0.23,3.52,0.22,12.18,0.22,12.18 l-0.16,15.66c0,0,0.07,6.31-3.82,8.48C54.6,108.1,50.27,108.44,50.27,108.44z" fill="#9E9E9E"/>
  <path d="M34.94,113.49c-0.12,0.33-0.19,3.6,2.29,5.19c1.78,1.14,7.3,5.54,25.63,5.6 c21.24,0.06,27.13-6.51,27.85-8.33c0.83-2.1,0.35-4.17,0.17-4.12c-0.13,0.04-0.55,1.13-1.12,1.76c-0.57,0.64-4.64,5.47-15.71,6.74 s-22.45,0.64-29.76-1.53S35,113.33,34.94,113.49z" fill="#9E9E9E"/>
  <path d="M37.8,111.81c-0.55,0.9-0.23,2.39,1.97,3.75c3.18,1.97,10.37,3.62,14.31,3.43 c3.94-0.19,4.01-2.73,0.45-3.31c-3.56-0.57-8.52-1.02-12.85-3.37C40.53,111.7,38.69,110.35,37.8,111.81z" fill="#FFFFFF"/>
  <path d="M59.81,111.37c0.14,1.79,2.86,1.4,4.2,1.4c1.34,0,3.12-0.13,3.05-1.59c-0.06-1.46-2.48-1.33-3.5-1.27 C62.35,109.97,59.68,109.71,59.81,111.37z" fill="#FFFFFF"/>
  <path d="M63.81,67.62c-2.08,0.03-2.95,0.89-2.97,7.75c-0.02,5.72-0.27,26.59-0.59,27.74s-1.21,3.43-1.02,4.52 c0.19,1.08,1.46,1.53,4.07,1.53c2.61,0,3.94-1.21,4.01-2.73c0.06-1.53-0.51-2.16-0.7-3.37c-0.19-1.21-0.16-21.71-0.16-27.37 C66.45,71.26,66.5,67.57,63.81,67.62z" fill="#FFFFFF"/>
  <path d="M23.21,25.31c-1.26,1.26,12.15,14.21,17.3,19.36s17.34,16.14,18.46,14.94S46.42,45.89,41.8,41.32 C34.67,34.28,24.5,24.02,23.21,25.31z" fill="#FFFFFF"/>
  <path d="M12.78,15.1C12.63,12.72,14.71,3.66,65.2,4.26c49.74,0.59,50.49,11.88,50.34,13.96 c-0.15,2.08-4.45-0.89-4.45-0.89s-9.85-8.88-46.37-9.02c-36.53-0.15-46.28,4.12-46.58,6.35s-0.59,4.01-0.59,4.01L12.78,15.1z" fill="#BFBFBF"/>
  <path d="M76.74,32.82c9.75-7.8,30.02-23.97,31.61-25.22c2.19-1.72,8.54-5.72,9.09-5.17 c0.55,0.55-3.76,6.03-6.58,8.7c-1.73,1.63-15.72,13.12-25.32,20.9C79.46,36.96,73.04,35.78,76.74,32.82z" fill="#F8C977"/>
  <path d="M70.04,38.47l6.7-5.66c0,0,2.21-0.09,4.3-0.26c1.8-0.15,4.48-0.5,4.48-0.5L73.1,42.38L70.04,38.47z" fill="#E3C08F"/>
  <path d="M74.98,37.92c-2.99-3.64-9.65-3.29-13.63,0.31c-4.15,3.76-4.86,9.32-1.65,13s8.38,4.07,13.24-0.24 C77.8,46.69,77.17,40.58,74.98,37.92z" fill="#919F50"/>
  <path d="M61.27,43.48c1.1,1.33,2.66,0.78,3.92-0.24c1.23-1,2-2.49,1.1-3.6c-1.02-1.25-2.66-0.63-3.76,0.24 S60.34,42.36,61.27,43.48z" fill="#E8DE9F"/>
  <path d="M59.43,46.44c-1.4,0.89-0.11,3.29,0.67,4.3c0.56,0.72,2.18,2.57,3.46,1.51 c1.28-1.06,0-3.07-0.89-4.41C62.11,47.01,60.87,45.52,59.43,46.44z" fill="#EF3E24"/>
  <path d="M64.1,29.37c20.93,0.34,43.51-1.39,49.34-7.18c5.15-5.11-0.44-8.94-0.44-8.94l-1.92,4.06l-3,3.46 l-8.8,2.63l-9,1.31l-18.5,1.01l-19.41-0.51L37.61,22.9l-11.43-2.33l-7.68-4.04l-1.92-3.54c0,0-3.73,0.97-3.79,1.8 c-0.1,1.34,0.58,2.74,1.56,3.96C16.22,21.08,26.38,28.77,64.1,29.37z" fill="#BFBFBF"/>
  <path d="M72.22,26.22c-2.39,0-4.92-0.03-7.59-0.09c-33.41-0.73-44.1-5.48-47.2-9.34 c-1.22-1.52-1.06-2.69-1.02-2.91c0.11-0.54,0.64-0.89,1.18-0.78c0.53,0.1,0.87,0.6,0.79,1.13c0,0.06,0.01,0.66,0.8,1.54 c2.54,2.81,11.83,7.63,45.48,8.36c34.79,0.76,43.16-3.87,45.14-5.9c0.72-0.73,0.7-1.22,0.7-1.22c-0.11-0.54,0.25-1.04,0.79-1.14 c0.54-0.11,1.07,0.28,1.18,0.82c0.04,0.2,0.18,1.27-0.93,2.6C108.84,22.53,99.69,26.22,72.22,26.22z" fill="#FEFEFE"/>
</svg>

<svg viewBox="0 0 128 128" xmlns="http://www.w3.org/2000/svg">
  <defs/>
  <path d="M20.55,21.01 L41.47,25.79 L82.12,26.99 L107.08,22.95 L113.73,16.16 L114.66,20.47 L71.59,63.55 L69.03,68.32 L68.92,95.8 C68.92,95.8 69.85,102.32 72.53,103.6 C75.21,104.88 84.76,106.05 88.6,108.96 C92.44,111.87 90.7,114.67 90.7,114.67 L83.83,119.79 L64.39,122.82 L42.97,120.61 C42.97,120.61 34.96,115.67 34.96,113.92 C34.96,113.92 34.64,110.55 38.78,108.15 C42.43,106.03 51.75,105.6 53.92,103.96 C58.23,100.7 58.46,97.21 58.46,97.21 L58.81,68.34 L52.87,61.47 C52.87,61.47 25.16,35.74 21.32,31.55 C17.48,27.36 15.73,25.03 14.1,22.58 C10.11,16.6 13.76,12.6 13.76,12.6 L20.55,21.01 Z" fill="#FFFFFF" opacity="0.5"/>
  <path d="M17.57,11.86 L35.5,7.31 L66,6.38 L97.44,10.11 L113.74,16.16 L114.67,20.47 L71.59,63.55 L69.03,68.32 L68.92,95.8 C68.92,95.8 69.85,102.32 72.53,103.6 C75.21,104.88 84.76,106.05 88.6,108.96 C92.44,111.87 90.7,114.67 90.7,114.67 L83.83,119.79 L64.39,122.82 L42.97,120.61 C42.97,120.61 34.96,115.67 34.96,113.92 C34.96,113.92 34.64,110.55 38.78,108.15 C42.43,106.03 51.75,105.6 53.92,103.96 C58.23,100.7 58.46,97.21 58.46,97.21 L58.81,68.34 L52.87,61.47 C52.87,61.47 25.16,35.74 21.32,31.55 C17.48,27.36 15.73,25.03 14.1,22.58 C10.11,16.6 13.76,12.6 13.76,12.6 L17.57,11.86 Z" fill="#E0E0E0" opacity="0.7"/>
  <path d="M24.89,26.32 C24.89,26.32 36.67,20.26 64.2,20.62 C91.73,20.98 102.54,28.6 102.54,28.6 L87,39.35 L45.23,37.4 L24.89,26.32 Z" fill="#FEF9E5"/>
  <path d="M64.9,33.06 C39.32,32.45 24.47,26.36 24.47,26.36 L54.92,56.44 C54.92,56.44 58.53,60.98 63.16,60.98 C67.79,60.98 69.53,59 71.12,57.78 C72.7,56.56 102.58,28.61 102.58,28.61 C102.58,28.61 86.58,33.57 64.9,33.06 Z" fill="#E5DDA0"/>
  <path d="M112.53,20.87 L110.94,23.09 C110.94,23.09 76.27,56.71 69.64,62.95 C66.92,65.51 65.99,67.45 66.1,70.48 C66.2,73.26 64.31,87.38 64.31,87.38 L66.17,102.97 C66.17,102.97 67.06,105.51 69.1,107.04 C71.14,108.57 76.1,109.2 76.1,109.2 C76.1,109.2 72.16,106.88 70.76,103.25 C69.36,99.62 69.55,98.13 69.55,95.97 C69.55,93.81 69.55,71.23 69.55,69.45 C69.55,67.67 71.71,65.32 73.24,63.85 C74.77,62.39 110.63,27.16 112.03,25.63 C114.74,22.67 115.59,20.71 115.71,19.18 C115.84,17.65 115.38,15.58 114.8,16.6 C114.23,17.63 112.53,20.87 112.53,20.87 Z" fill="#9E9E9E"/>
  <path d="M50.27,108.44 C50.27,108.44 54.78,106.02 55.99,102.58 C57.2,99.14 57.58,96.93 57.64,92.41 C57.7,87.89 57.64,70.66 57.64,68.63 C57.64,66.18 54.6,63.73 53.23,61.85 C52.99,61.52 55.04,62.19 57.05,63.41 C59.5,64.9 61.94,66.3 61.71,69.92 C61.48,73.44 61.93,82.1 61.93,82.1 L61.77,97.76 C61.77,97.76 61.84,104.07 57.95,106.24 C54.6,108.1 50.27,108.44 50.27,108.44 Z" fill="#9E9E9E"/>
  <path d="M34.94,113.49 C34.82,113.82 34.75,117.09 37.23,118.68 C39.01,119.82 44.53,124.22 62.86,124.28 C84.1,124.34 89.99,117.77 90.71,115.95 C91.54,113.85 91.06,111.78 90.88,111.83 C90.75,111.87 90.33,112.96 89.76,113.59 C89.19,114.23 85.12,119.06 74.05,120.33 C62.98,121.6 51.6,120.97 44.29,118.8 C36.98,116.63 35,113.33 34.94,113.49 Z" fill="#9E9E9E"/>
  <path d="M37.8,111.81 C37.25,112.71 37.57,114.2 39.77,115.56 C42.95,117.53 50.14,119.18 54.08,118.99 C58.02,118.8 58.09,116.26 54.53,115.68 C50.97,115.11 46.01,114.66 41.68,112.31 C40.53,111.7 38.69,110.35 37.8,111.81 Z" fill="#FFFFFF"/>
  <path d="M59.81,111.37 C59.95,113.16 62.67,112.77 64.01,112.77 C65.35,112.77 67.13,112.64 67.06,111.18 C67,109.72 64.58,109.85 63.56,109.91 C62.35,109.97 59.68,109.71 59.81,111.37 Z" fill="#FFFFFF"/>
  <path d="M63.81,67.62 C61.73,67.65 60.86,68.51 60.84,75.37 C60.82,81.09 60.57,101.96 60.25,103.11 C59.93,104.26 59.04,106.54 59.23,107.63 C59.42,108.71 60.69,109.16 63.3,109.16 C65.91,109.16 67.24,107.95 67.31,106.43 C67.37,104.9 66.8,104.27 66.61,103.06 C66.42,101.85 66.45,81.35 66.45,75.69 C66.45,71.26 66.5,67.57 63.81,67.62 Z" fill="#FFFFFF"/>
  <path d="M23.21,25.31 C21.95,26.57 35.36,39.52 40.51,44.67 C45.66,49.82 57.85,60.81 58.97,59.61 C60.09,58.41 46.42,45.89 41.8,41.32 C34.67,34.28 24.5,24.02 23.21,25.31 Z" fill="#FFFFFF"/>
  <path d="M12.78,15.1 C12.63,12.72 14.71,3.66 65.2,4.26 C114.94,4.85 115.69,16.14 115.54,18.22 C115.39,20.3 111.09,17.33 111.09,17.33 C111.09,17.33 101.24,8.45 64.72,8.31 C28.19,8.16 18.44,12.43 18.14,14.66 C17.84,16.89 17.55,18.67 17.55,18.67 L12.78,15.1 Z" fill="#BFBFBF"/>
  <path d="M76.74,32.82 C86.49,25.02 106.76,8.85 108.35,7.6 C110.54,5.88 116.89,1.88 117.44,2.43 C117.99,2.98 113.68,8.46 110.86,11.13 C109.13,12.76 95.14,24.25 85.54,32.03 C79.46,36.96 73.04,35.78 76.74,32.82 Z" fill="#F8C977"/>
  <path d="M70.04,38.47 L76.74,32.81 C76.74,32.81 78.95,32.72 81.04,32.55 C82.84,32.4 85.52,32.05 85.52,32.05 L73.1,42.38 L70.04,38.47 Z" fill="#E3C08F"/>
  <path d="M74.98,37.92 C71.99,34.28 65.33,34.63 61.35,38.23 C57.2,41.99 56.49,47.55 59.7,51.23 C62.91,54.91 68.08,55.3 72.94,50.99 C77.8,46.69 77.17,40.58 74.98,37.92 Z" fill="#919F50"/>
  <path d="M61.27,43.48 C62.37,44.81 63.93,44.26 65.19,43.24 C66.42,42.24 67.19,40.75 66.29,39.64 C65.27,38.39 63.63,39.01 62.53,39.88 C61.43,40.75 60.34,42.36 61.27,43.48 Z" fill="#E8DE9F"/>
  <path d="M59.43,46.44 C58.03,47.33 59.32,49.73 60.1,50.74 C60.66,51.46 62.28,53.31 63.56,52.25 C64.84,51.19 63.56,49.18 62.67,47.84 C62.11,47.01 60.87,45.52 59.43,46.44 Z" fill="#EF3E24"/>
  <path d="M64.1,29.37 C85.03,29.71 107.61,27.98 113.44,22.19 C118.59,17.08 113,13.25 113,13.25 L111.08,17.31 L108.08,20.77 L99.28,23.4 L90.28,24.71 L71.78,25.72 L52.37,25.21 L37.61,22.9 L26.18,20.57 L18.5,16.53 L16.58,12.99 C16.58,12.99 12.85,13.96 12.79,14.79 C12.69,16.13 13.37,17.53 14.35,18.75 C16.22,21.08 26.38,28.77 64.1,29.37 Z" fill="#BFBFBF"/>
  <path d="M72.22,26.22 C69.83,26.22 67.3,26.19 64.63,26.13 C31.22,25.4 20.53,20.65 17.43,16.79 C16.21,15.27 16.37,14.1 16.41,13.88 C16.52,13.34 17.05,12.99 17.59,13.1 C18.12,13.2 18.46,13.7 18.38,14.23 C18.38,14.29 18.39,14.89 19.18,15.77 C21.72,18.58 31.01,23.4 64.66,24.13 C99.45,24.89 107.82,20.26 109.8,18.23 C110.52,17.5 110.5,17.01 110.5,17.01 C110.39,16.47 110.75,15.97 111.29,15.87 C111.83,15.76 112.36,16.15 112.47,16.69 C112.51,16.89 112.65,17.96 111.54,19.29 C108.84,22.53 99.69,26.22 72.22,26.22 Z" fill="#FEFEFE"/>
</svg>
